X:2
T:West Clare Reel
R:reel
S:Clare FM
D: Mick O'Brien
Z:psc -  http://www.cranfordpub.com
L:1/8
Q:333
M:C|
K:Ador
G|EGAB c2 AB|cBcd cAGD|EGAB cBcd|ecde cAA:|
||g|aged ~c3 e|aged cAAe|aged cBce|gfga gede|
aged ~c3 e|aged cAAd|ea ~a2 gedB|cded cAA|]
